bulletin-board.svg

<svg fill="currentColor" viewBox="0 0 24 24"><path d="M12.04 2.5 9.53 5h5zM4 7v13h16V7zm8-7 5 5h3a2 2 0 0 1 2 2v13a2 2 0 0 1-2 2H4a2 2 0 0 1-2-2V7a2 2 0 0 1 2-2h3zM7 18v-4h5v4zm7-1v-7h4v7zm-8-5V9h5v3z"/></svg>

<svg  viewBox="0 0 24 24" fill="currentColor"><path  d="M12.04,2.5L9.53,5H14.53L12.04,2.5M4,7V20H20V7H4M12,0L17,5V5H20A2,2 0 0,1 22,7V20A2,2 0 0,1 20,22H4A2,2 0 0,1 2,20V7A2,2 0 0,1 4,5H7V5L12,0M7,18V14H12V18H7M14,17V10H18V17H14M6,12V9H11V12H6Z"/></svg>
